X: 1
T: Dick Gossips (The Castle Reel)
R: reel
M: 4/4
K: D
F2AF GFED|F2AF GFED|~E3F GFED|~E3F GFED|
F2AF GFED|F2AF GFED|ABde fgec|1 dfec dBAG:|2 dfec d2ef||
|:gB~B2 gBaB|gB~B2 gfed|(3cBA eA fAeA|(3cBA eA cdef|
gB~B2 gBaB|gB~B2 gfed|cdef gece|1 dfec d2ef:|2 dfec dBAG||
